X:1
T:3 Lieder, Op.8
T:Ewige Nähe
T:Frau Caroline von Hoesslin (geb: v. Eichthal) achtungsvoll gewidmet 
T:3. Ewige Nähe
T:Josephine Lang
T:Agnes von Calatin
T:3 Lieder, Op.8
T:Creative Commons copyright waiver (CC0 1.0 Universal)
T:Creative Commons copyright waiver (CC0 1.0 Universal)
C:Josephine Lang
Z:Agnes von Calatin
Z:Creative Commons copyright waiver (CC0 1.0 Universal)
L:1/8
Q:1/4=100
M:4/4
K:Eb
V:1 treble nm="Singstimme\nVoice"
V:1
"^Andante con moto" A3 A G3 G | c3 c c2 B2 | e3 d c2 B2 | A2 G2 F4 | A3 A G3 G | c3 c c2 B2 | %6
w: Hel- ler ward mein|inn- res Le- ben|schö- ner seit ich|dich er- kannt,|seit ein glei- ches|ho- hes Stre- ben|
 g3 f e2 d2 | d3 c B2 z2 | B3 _c _d2 A2 | B3 _c (e2 d2) | B3 B A2 _G2 | (F2 _G3/2) F/ F2 z2 | %12
w: Herz mit Herz so|eng ver- band.|Mei- ne Lie- der,|wie mein Füh- len,|Al- les hab' ich|dir * ge- weiht,|
 B2 z _c d3 A | B3 =c d2 B2 | e3 E E3 E | (E2 D3/2) E/ (B4 | A2) z A G3 G | c3 c c2 B2 | %18
w: Nichts konnt'  mei- ne|Lie- be küh- len|kei- ne Tren- nung|und * kein Leid!|Und doch  soll ich|dir ent- sa- gen|
 e3 d c2 B2 | (A3 G F4) | A2 z A _G3 G | _c3 c c2 B2 | =A3 B c3 E | (_G2 F3/2) E/ (D2 F) z | %24
w: dir mein hel- ler|Le- bens- stern,|soll die tie- fe|Nacht er- tra- gen,|dass du mir auf|e- * wig  fern! *|
 F2 z G A2 z =A | B3 e e2 d2 | (_d2 B/) z/ G =E3/2 E/ F A | c3 B A2 z2 | F2 z E (BA) z G | %29
w: Nein, ach nein so|darf's nicht wer- den,|nein, * ach nein es darf kein|Ab- schied sein,|ob ge- trennt, * ob|
 (c2 B) A (e>d) d2 | (fe) (dc) (cB) (AG) | (A2 G3/2) F/ B4 | (g4- gf e3/2) d/ | d4- (dc) (BA) | %34
w: noch * auf Er- * den!|hier * im * Her- * zen *|bleibst * du mein|hier _ _ _ im|Her- * * zen *|
 (!turn!G4 (A3) D) | E2 z2 z4 | z8 | z8 | z8 |] %39
w: bleibst _ du|mein!||||

